X:4587
T:Nelson. HSJJ.182
O:england
M:4/4
L:1/8
Q:180
S:HSJ Jackson,Wyresdale,Lancs.1823
R:Air
A:Lancashire
H:1823
K:F
a>g|f3ff2c2|f4z2f2|g3ab2a2|g4z2a>g|g2a>fe2f>d|c4z2a>g|
f3ff2c2|f4z2f2|g2gab2a2|g4z2a>g|g-c' a-fe-gf-d|c4z2c2|
b2a2g2f2|e2d2c2z2|b2a>ag2f2|e2d2c2B2|A2a2a3-g|.f.ez2z2d>c|
c2B2(b3a/g/)|.effz2z2c2|.d2.e2.f2.g2|a2f2"hold"g2z2|f4a3g|f4z2f2|
a4g2f2|c'4z2c2|d2g>fe2c'b|baz2z2c2|d4b3-a|
g4c'3b|.a.fz2z2a2|b>ag>f e>dc>B|.A2.c2.f2a2|b>ag>f e>dc>B|
A4z2A2|~B3cd2=f2|g2a2b2d'2|c'-3a c'-b.g.e|g4-f2|]


